X: 35317
T: Rosebud
R: slide
M: 12/8
K: Dmajor
|:E|F^EF D=EF ABA AGF|G2 d F2 d E2 d cBA|
F^EF D=EF ABA AFD|G2 d F2 d c^Bc d2:|
|:A|dcd fdA GFG dAF|G2 d F2 d E2 d cBA|
[1 d2 d fdA G2 G dBF|G2 d F2 d c^Bc d2:|
[2 f2 e dcB A2 B AFD|GdG FdF Edc d2||

